images/like-filled.svg

<!DOCTYPE svg PUBLIC "-//W3C//DTD SVG 1.1//EN" "http://www.w3.org/Graphics/SVG/1.1/DTD/svg11.dtd">
<!-- Uploaded to: SVG Repo, www.svgrepo.com, Transformed by: SVG Repo Mixer Tools -->
<svg width="800px" height="800px" viewBox="0 0 24 24" fill="none" xmlns="http://www.w3.org/2000/svg">
<g id="SVGRepo_bgCarrier" stroke-width="0"/>
<g id="SVGRepo_tracerCarrier" stroke-linecap="round" stroke-linejoin="round"/>
<g id="SVGRepo_iconCarrier"> <path opacity="0.15" fill-rule="evenodd" clip-rule="evenodd" d="M8 10V20H17.3604C18.3138 20 19.1346 19.3271 19.3216 18.3922L20.5216 12.3922C20.7691 11.1547 19.8225 10 18.5604 10H14L16.4258 6.36138C17.1929 5.2106 16.5885 3.64714 15.2467 3.31169L15.1992 3.2998C14.4642 3.11607 13.6886 3.36333 13.1956 3.9385L8 10Z" fill="#0f8500"/> <path d="M8 10V20M8 10L4 9.99998V20L8 20M8 10L13.1956 3.93847C13.6886 3.3633 14.4642 3.11604 15.1992 3.29977L15.2467 3.31166C16.5885 3.64711 17.1929 5.21057 16.4258 6.36135L14 9.99998H18.5604C19.8225 9.99998 20.7691 11.1546 20.5216 12.3922L19.3216 18.3922C19.1346 19.3271 18.3138 20 17.3604 20L8 20" stroke="#0f8500" stroke-width="1.5" stroke-linecap="round" stroke-linejoin="round"/> </g>
</svg>

<svg width="800" height="800" viewBox="0 0 24 24" fill="none" xmlns="http://www.w3.org/2000/svg"><path opacity=".15" fill-rule="evenodd" clip-rule="evenodd" d="M8 10v10h9.36a2 2 0 0 0 1.962-1.608l1.2-6A2 2 0 0 0 18.56 10H14l2.426-3.639a2 2 0 0 0-1.18-3.05L15.2 3.3a2 2 0 0 0-2.003.639L8 10Z" fill="#0f8500"/><path d="M8 10v10m0-10H4v10h4m0-10 5.196-6.062a2 2 0 0 1 2.003-.638l.048.012a2 2 0 0 1 1.179 3.05L14 10h4.56a2 2 0 0 1 1.962 2.392l-1.2 6A2 2 0 0 1 17.36 20H8" stroke="#0f8500" stroke-width="1.5" stroke-linecap="round" stroke-linejoin="round"/></svg>
